X:196
M:4/4
L:1/4
K:G
G/F/ | E E E D | G G A G/A/ | B B A/G/ E | D3 G/F/ | E E E D | G G A G/A/ | B B A/G/ E | E3 B/c/ | d B B/A/ G | A A B2 | B B/A/ G E | D3 !sintro!G/F/ | E E E/D/ E/F/ | G G A G/A/ | B B A/G/ E | E3 !eintro!|]
